src/assets/images/icons/networks/homestead.svg

<svg width="200" height="200" viewBox="0 0 200 200" fill="none" xmlns="http://www.w3.org/2000/svg">
<g clip-path="url(#clip0_293_6260)">
<path d="M99.9412 0L98.5996 4.55761V136.798L99.9412 138.136L161.324 101.852L99.9412 0Z" fill="#F48975"/>
<path d="M100.023 0L38.6387 101.852L100.023 138.136V73.9505V0Z" fill="#F9ED67"/>
<path d="M99.9415 149.764L99.1855 150.687V197.793L99.9415 200L161.362 113.499L99.9415 149.764Z" fill="#667BBE"/>
<path d="M100.023 200V149.764L38.6387 113.499L100.023 200Z" fill="#0DB2D0"/>
<path d="M99.9707 138.133L161.353 101.849L99.9707 73.9473V138.133Z" fill="#9C68AA"/>
<path d="M38.6387 101.85L100.023 138.134V73.9487L38.6387 101.85Z" fill="#50BB77"/>
</g>
<defs>
<clipPath id="clip0_293_6260">
<rect width="200" height="200" fill="white"/>
</clipPath>
</defs>
</svg>

<svg xmlns="http://www.w3.org/2000/svg" width="200" height="200" fill="none"><g clip-path="url(#a)"><path fill="#F48975" d="M99.941 0 98.6 4.558v132.24l1.341 1.338 61.383-36.284z"/><path fill="#F9ED67" d="M100.023 0 38.639 101.852l61.384 36.284V0"/><path fill="#667BBE" d="m99.942 149.764-.756.923v47.106L99.94 200l61.421-86.501z"/><path fill="#0DB2D0" d="M100.023 200v-50.236l-61.384-36.265z"/><path fill="#9C68AA" d="m99.97 138.133 61.383-36.284-61.382-27.902z"/><path fill="#50BB77" d="m38.639 101.85 61.384 36.284V73.949z"/></g><defs><clipPath id="a"><path fill="#fff" d="M0 0h200v200H0z"/></clipPath></defs></svg>
